X:30
T:Lament for John Roy Harris
R:Air
C:Don Fletcher & Denis Lanctot (Ottawa)
Z:alf warnock alf0@rogers.com - http://members.rogers.com/alf0
M:4/4
L:1/4
Q:1/4=100
K:F
CE|"F"F2FA |"Am"c2fg|"Dm"a>g/2a/4fe|"Bb"d3e|"F"fF"Gm"Bd|"F"cF"Am"Ac|"Gm"BdcA|"C7"G2CE|
"F"F2FA |"Am"c2ba|"A7"a>b/2a/4 g>a/2g/4|"Dm"Hf2 FG|"F"AF"Gm"BA|"C7"GFDC|"F"([A,4F4]|[A,2F2]):|
Ac|"Dm"f>g/2f/4ed|"Am"e2Ac|"Bb"d2c>B|"F"c2FG|A>BAG|GAGF|"Bb"[F2d2]([F2d2]|"C7"[E2c2]) |
|1 Ac|"Dm"f>g/2f/4ed |"Am"c2Ac|"Bb"d2c>B|"F"AFGA|"Gm"BDFB|"C7"AGFE| "F"([A,4F4]|[A,2F2] ):|
|2 AG|"F"F2FA |"Am"c2ba|"A7"a>b/2a/4g>a/2g/4|"Dm" Hf2 FG|"F"AF"Gm"BA|"C7"GFDE|"F"([A,4F4]|[A,2F2])"to Coda"||
|"Coda" F"rall."G|"F"AF"Gm"BA|"C7"GF H[d2g2]|H[B2e2]"F"H[A2f2]||
